X:18369
T:Walking Song
M:C
L:1/8
C:Trad Swedish?
S:J Erdman taught by Shana Hansen
K:G
D|:G2>D2 G2B2 |d6 Bc|d2 Bc d2 e2 |c2 cB A2 AB|c2 cd e2 dc|
Bc BAG2 BB|ABAF DDEF|1 G2 B2 G3 D:|2G2B2G2 Bd|
|: g2g2g2 fe| f6 gf|e2 e2 egfe|edd^c d2 ed|
c2 cBA2 GA|BcBAG2 BB| ABAF DDEF|1 G2B2G2 Bd:|2 G2B2G4|


